X: 32
T:Blackberry Blossom
R:Reel
C:Traditional
L:1/8
Q:400
M:4/4
K:G
|: gb ag fa gf | eg fe dc BA | GF GA Bd eg | ba gb a2 d2 |
gb ag fa gf | eg fe dc BA | GF GA Bd eg | ba ga g4 :|
|: E2 eB d2 e2 | E2 eB dB AG | E2 eB d2 e2 | ga ^a=a ge dB | E2 eB d2 e2 |
   E2 eB dB A2 | gf gd eg fe |1 dc BA G2 F2 :|2 dc BA G4 |
